X:1
T:Little Burnt Potato
L:1/8
M:6/8
I:linebreak $
K:D
V:1 treble 
V:1
 a^ga bag | afd A2 d | f2 a g2 f | e3 Bcd | e2 f e2 d | cAc a2 a |1 a^ga ba=g |$ f3 fg^g :|2 %8
 a^ga b2 c | d3 a2 g |: f2 A f2 A | f3 f2 e | dcd agf | g3 gef | gba gfe |$ dcB A3 |1 a^ga ba=g | %17
 f3 a2 g :|2 a^ga b2 c | d3 d3 |] %20
